X: 13124
T: First Date
R: slip jig
M: 9/8
K: Dmajor
|dAA f2d edc|dAA ~f3 def|
g2B gaf def|~e3 efd cBA|
dAA f2d edc|dAA ~f3 def|
g2B gaf def|1 efe edc dec:|2 efe edc dfg||
aba a2g fed|g2B gaf edc|
dAA f3 def|eAf eAf gfe|
aba a2g fed|g2B gaf edc|
dAA f3 def|1 efe dec dfg:|2 efe edc dec||d6||

